X: 258
T:Walladmoor. JaW.257
M:6/8
Q:120
S:James Winder Ms, Lancashire, 1835-41
R:Jig
O:England
A:Wyresdale,Lancashire
H:1/8
Z:vmp.Chris Partington, Aug 2004
K:C
c/B/|ABA e2d|cBA B2E|ABA B2E|ABA B2E|!
ABA e2d|cBA ^GBE|A2B cdB|A3-A2||!
G|cdc g2f|edc BdG|cdc d2G|cdc d2G|!
cdc g2f|edc (Bd) ^G|A2B cdB|A2aA2|]
